server/website/public/icons/base/lock.svg

<svg width="48" height="48" viewBox="0 0 48 48" fill="none" xmlns="http://www.w3.org/2000/svg">
<g clip-path="url(#clip0_1310_11856)">
<path d="M11 13V20H8C6.93913 20 5.92172 20.4214 5.17157 21.1716C4.42143 21.9217 4 22.9391 4 24L4 44C4 45.0609 4.42143 46.0783 5.17157 46.8284C5.92172 47.5786 6.93913 48 8 48H40C41.0609 48 42.0783 47.5786 42.8284 46.8284C43.5786 46.0783 44 45.0609 44 44V24C44 22.9391 43.5786 21.9217 42.8284 21.1716C42.0783 20.4214 41.0609 20 40 20H37V13C37 9.55219 35.6304 6.24558 33.1924 3.80761C30.7544 1.36964 27.4478 0 24 0C20.5522 0 17.2456 1.36964 14.8076 3.80761C12.3696 6.24558 11 9.55219 11 13ZM16 20V13C16 10.8783 16.8429 8.84344 18.3431 7.34315C19.8434 5.84285 21.8783 5 24 5C26.1217 5 28.1566 5.84285 29.6569 7.34315C31.1571 8.84344 32 10.8783 32 13V20H16ZM20 31C20.0001 30.307 20.1803 29.626 20.5229 29.0236C20.8654 28.4212 21.3585 27.9182 21.954 27.5637C22.5494 27.2093 23.2267 27.0156 23.9196 27.0017C24.6124 26.9877 25.2969 27.154 25.9062 27.4842C26.5154 27.8145 27.0284 28.2973 27.3948 28.8854C27.7613 29.4735 27.9687 30.1468 27.9967 30.8392C28.0247 31.5316 27.8724 32.2194 27.5546 32.8352C27.2369 33.451 26.7646 33.9736 26.184 34.352L26.168 34.362C26.168 34.362 26.558 36.722 26.998 39.502V39.504C26.9975 39.9011 26.8395 40.2818 26.5587 40.5627C26.2778 40.8435 25.8971 41.0015 25.5 41.002H22.496C22.0989 41.0015 21.7182 40.8435 21.4373 40.5627C21.1565 40.2818 20.9985 39.9011 20.998 39.504V39.502L21.828 34.362C21.2662 33.9997 20.8041 33.5023 20.4841 32.9153C20.1641 32.3284 19.9963 31.6705 19.996 31.002L20 31Z" fill="black"/>
</g>
<defs>
<clipPath id="clip0_1310_11856">
<rect width="40" height="48" fill="white" transform="translate(4)"/>
</clipPath>
</defs>
</svg>

<svg width="48" height="48" fill="none" xmlns="http://www.w3.org/2000/svg"><g clip-path="url(#prefix__clip0_1310_11856)"><path d="M11 13v7H8a4 4 0 00-4 4v20a4 4 0 004 4h32a4 4 0 004-4V24a4 4 0 00-4-4h-3v-7a13 13 0 10-26 0zm5 7v-7a8 8 0 0116 0v7H16zm4 11a3.999 3.999 0 116.184 3.352l-.016.01s.39 2.36.83 5.14v.002a1.5 1.5 0 01-1.498 1.498h-3.004a1.5 1.5 0 01-1.498-1.498v-.002l.83-5.14a4 4 0 01-1.832-3.36L20 31z" fill="#000"/></g><defs><clipPath id="prefix__clip0_1310_11856"><path fill="#fff" transform="translate(4)" d="M0 0h40v48H0z"/></clipPath></defs></svg>
